X:1
T:Title
%%score { ( 1 3 ) | 2 }
L:1/8
M:4/4
K:Ab
V:1 treble nm="Grand Piano"
V:3 treble 
V:2 bass 
V:1
 z4 z2[Q:1/4=100] [CE][CE] | [CA][CA][CA][CA] [Ec][Ec][EA][EA] | z4 [=DB]2 z2 | GGGG F2 G>G | %4
 [CA]6 [CE][CE] | [CA][CA][CA][CA] [Ec][Ec][EA][EA] | z4 [DB]2 z2 | GGdd c2 B>B |[M:3/4] [CEA]6 | %9
[M:1/4] cd |[M:4/4] e6 z2 | [Gd]2 G>G G2 Bc | e4 z4 | A2 B>B [Ec]2 cd | efec A2 Bc | %15
 [Fd][Fe][Fd][FB] [DF]2 [=DA][FA] | GGdd c2 B>[DEB] |[M:3/4] [CEA]6 |] %18
V:2
 z4 z2 [A,,A,][A,,A,] | [A,,E,][A,,E,][A,,E,][A,,E,] [A,,A,][A,,A,][C,A,][C,A,] | %2
 [D,A,D][D,A,D][D,A,D][D,A,D] .[B,,A,]2 [B,,B,][B,,B,] | %3
 [E,B,E][E,B,E][E,B,E][E,B,E] [E,B,D]2 [E,D]>[E,D] | [A,,E,]6 [A,,A,][A,,A,] | %5
 [A,,E,][A,,E,][A,,E,][A,,E,] [A,,A,][A,,A,][C,A,][C,A,] | %6
 [D,A,D][D,A,D][D,A,D][D,A,D] .[B,,A,]2 [B,,B,][B,,B,] | %7
 [E,B,E][E,B,E][E,G,E][E,G,E] [E,A,E]2 [E,DE]>[E,DE] |[M:3/4] A,,6 | %9
[M:1/4][K:treble] [A,E][A,B,E] |[M:4/4] [A,CA][A,C][A,C][K:bass][A,C] [A,C]2 [B,DE][A,CE] | %11
 [E,B,]2 [E,B,E]>[E,B,E] [E,B,E]2 [E,G,E][E,A,E] | %12
 [E,B,][E,B,][E,B,][E,B,] [E,B,E]2 [E,B,D][E,B,D] | %13
 [F,A,C]2 [E,G,E]>[E,G,E] [A,,A,]2[K:treble] [A,E][A,B,E] | %14
 [A,CA][A,DA][A,CA][K:bass][A,E] [A,C]2 [A,D][A,E] | %15
 [D,A,][D,A,][D,A,][D,A,] [D,A,]2 [B,,B,][B,,B,] | %16
 [E,B,E][E,B,E][E,G,E][E,G,E] [E,A,E]2 [E,DE]>D, |[M:3/4] A,,6 |] %18
V:3
 x8 | x8 | FFFF z F,[=DA][FA] | x8 | x8 | x8 | FFFF z F,[DA][FA] | x8 |[M:3/4] x6 |[M:1/4] x2 | %10
[M:4/4] z AAA AAGA | x8 | GGGG dGFG | x8 | x8 | x8 | x8 |[M:3/4] x6 |] %18

